dist/upp/assets/img/soc-in.svg

<svg width="24" height="24" viewBox="0 0 24 24" fill="none" xmlns="http://www.w3.org/2000/svg">
<path fill-rule="evenodd" clip-rule="evenodd" d="M18.8008 3C20.0146 3 21 3.98543 21 5.19916V18.8008C21 20.0146 20.0146 21 18.8008 21H5.19916C3.98543 21 3 20.0146 3 18.8008V5.19916C3 3.98543 3.98539 3 5.19916 3H18.8008V3ZM8.64121 17.8809V9.9455H6.00308V17.8809H8.64121ZM18.1523 17.8809V13.3303C18.1523 10.8928 16.8509 9.75889 15.1155 9.75889C13.7162 9.75889 13.0893 10.5285 12.7384 11.069V9.9455H10.1009C10.1359 10.6901 10.1009 17.8809 10.1009 17.8809H12.7383V13.4492C12.7383 13.212 12.7554 12.9749 12.8253 12.8053C13.0156 12.3316 13.4499 11.8408 14.1786 11.8408C15.1326 11.8408 15.5148 12.5688 15.5148 13.6351V17.8809H18.1523ZM7.33997 6.11913C6.43737 6.11913 5.84766 6.71254 5.84766 7.4903C5.84766 8.25171 6.41944 8.86146 7.30506 8.86146H7.32207C8.24194 8.86146 8.81453 8.25171 8.81453 7.4903C8.79748 6.71362 8.24355 6.12082 7.33997 6.11913Z" fill="white"/>
</svg>

<svg width="24" height="24" fill="none" xmlns="http://www.w3.org/2000/svg"><path fill-rule="evenodd" clip-rule="evenodd" d="M18.8 3A2.2 2.2 0 0121 5.2v13.6a2.2 2.2 0 01-2.2 2.2H5.2A2.2 2.2 0 013 18.8V5.2A2.2 2.2 0 015.2 3h13.6zM8.642 17.88V9.947H6.003v7.935h2.638zm9.511 0v-4.55c0-2.437-1.301-3.571-3.037-3.571-1.399 0-2.026.77-2.377 1.31V9.945h-2.637c.035.745 0 7.936 0 7.936h2.637v-4.432c0-.237.017-.474.087-.644.19-.473.625-.964 1.354-.964.954 0 1.336.728 1.336 1.794v4.246h2.637zM7.34 6.12c-.903 0-1.492.593-1.492 1.37 0 .762.571 1.371 1.457 1.371h.017c.92 0 1.493-.61 1.493-1.37-.018-.777-.571-1.37-1.475-1.372z" fill="#fff"/></svg>
